assets/svg/question.svg

<?xml version="1.0" encoding="UTF-8"?>
<svg width="1000px" height="1000px" viewBox="0 0 1000 1000" version="1.1" xmlns="http://www.w3.org/2000/svg" xmlns:xlink="http://www.w3.org/1999/xlink">
    <!-- Generator: sketchtool 52.4 (67378) - http://www.bohemiancoding.com/sketch -->
    <title>question</title>
    <desc>Created with sketchtool.</desc>
    <g id="新版图标" stroke="none" stroke-width="1" fill="none" fill-rule="evenodd">
        <g id="question" fill="#323233">
            <g id="圆角-答疑-线">
                <path d="M500,55.5555556 C254.555556,55.5555556 55.5555556,254.555556 55.5555556,500 C55.5555556,745.444444 254.555556,944.444444 500,944.444444 C745.444444,944.444444 944.444444,745.444444 944.444444,500 C944.444444,254.555556 745.444444,55.5555556 500,55.5555556 M506.455556,277.777778 C461.844444,277.777778 426.455556,290.555556 400.844444,316.833333 C374.566667,342.5 361.788889,377.277778 361.788889,421.888889 L361.788889,422.888889 C361.788889,440.833333 376.233333,455.333333 394.177778,455.333333 C412.066667,455.333333 426.566667,440.833333 426.566667,422.888889 C426.566667,422.5 426.455556,421.888889 426.455556,421.888889 C426.455556,394.944444 431.9,373.666667 442.9,359 C455.122222,341.888889 475.233333,333.333333 502.788889,333.333333 C524.733333,333.333333 541.844444,339.444444 554.011111,351.666667 C565.622222,363.888889 571.788889,380.388889 571.788889,401.722222 C571.788889,417.611111 566.233333,432.222222 555.233333,446.277778 L544.844444,457.888889 C507.066667,491.444444 484.511111,516.888889 475.233333,533.555556 C461.4,558.5 463.9,581.555556 463.9,581.555556 C463.9,599.444444 478.455556,613.944444 496.344444,613.944444 C514.288889,613.944444 526.122222,601.611111 528.733333,581.555556 C528.733333,581.555556 532.066667,562.888889 538.788889,550.666667 C544.288889,539.722222 552.844444,529.277778 563.788889,519.555556 C593.177778,494.5 610.233333,478.611111 615.677778,471.888889 C630.344444,452.388889 638.233333,427.333333 638.233333,397.444444 C638.233333,360.833333 626.066667,331.5 602.288889,310.111111 C577.844444,288.166667 546.122222,277.777778 506.455556,277.777778 M496.038889,634.927778 C483.261111,634.927778 472.816667,638.594444 464.927778,647.15 C455.705556,655.038889 451.427778,665.483333 451.427778,678.261111 C451.427778,690.483333 455.705556,700.872222 464.927778,709.427778 C472.816667,717.927778 483.261111,722.205556 496.038889,722.205556 C508.316667,722.205556 519.261111,717.927778 528.427778,710.038889 C536.927778,701.427778 541.205556,691.094444 541.205556,678.261111 C541.205556,665.483333 536.927778,655.038889 528.427778,647.15 C519.872222,638.594444 508.872222,634.927778 496.038889,634.927778" id="Fill-1"></path>
            </g>
        </g>
    </g>
</svg>

<svg width="1000" height="1000" xmlns="http://www.w3.org/2000/svg"><path d="M500 55.556c-245.444 0-444.444 199-444.444 444.444 0 245.444 199 444.444 444.444 444.444 245.444 0 444.444-199 444.444-444.444 0-245.444-199-444.444-444.444-444.444m6.456 222.222c-44.612 0-80 12.778-105.612 39.055-26.277 25.667-39.055 60.445-39.055 105.056v1c0 17.944 14.444 32.444 32.389 32.444 17.889 0 32.389-14.5 32.389-32.444 0-.389-.111-1-.111-1 0-26.945 5.444-48.222 16.444-62.889 12.222-17.111 32.333-25.667 59.889-25.667 21.944 0 39.055 6.111 51.222 18.334 11.611 12.222 17.778 28.722 17.778 50.055 0 15.89-5.556 30.5-16.556 44.556l-10.389 11.61c-37.777 33.556-60.333 59-69.61 75.668-13.834 24.944-11.334 48-11.334 48 0 17.888 14.556 32.388 32.444 32.388 17.945 0 29.778-12.333 32.39-32.388 0 0 3.333-18.667 10.055-30.89 5.5-10.944 14.055-21.388 25-31.11 29.389-25.056 46.444-40.945 51.889-47.667 14.666-19.5 22.555-44.556 22.555-74.445 0-36.61-12.166-65.944-35.944-87.333-24.445-21.944-56.167-32.333-95.833-32.333m-10.417 357.15c-12.778 0-23.222 3.666-31.111 12.222-9.222 7.889-13.5 18.333-13.5 31.111 0 12.222 4.278 22.611 13.5 31.167 7.889 8.5 18.333 12.778 31.11 12.778 12.279 0 23.223-4.278 32.39-12.167 8.5-8.611 12.778-18.945 12.778-31.778 0-12.778-4.278-23.222-12.778-31.111-8.556-8.556-19.556-12.222-32.39-12.222" fill="#323233" fill-rule="evenodd"/></svg>
